X:1
T:KINDERLIEDJES MEDLEY
T:KINDERLIEDJES MEDLEY
T:Mars
T:KINDERLIEDJES MEDLEY pagina 2
C:Unknow
Z:All Rights Reserved
L:1/4
Q:1/4=120
M:4/4
K:C
V:1 treble nm="MusicXML Part"
%%MIDI program 0
%%MIDI control 7 102
%%MIDI control 10 64
V:1
"C""^1. Deze vuist op deze vuist" C D E D | C D E2 |"G7" D E F E | D E F2 |"C" E F G F | E F G G | %6
"F" A A G E |1"G7" D2"C" C2 :|2"G7" D2"C" C/c/B/A/ ||"G7" G z C E |: %10
"C""^2. Zeg Roodkapje waar ga je henen" G G/G/ G A | G E C C |"G7" D2 D D |"C" E2 C E | %14
"C" G G/G/ G A | G E C2 |"G7" D2"C" C2 |1 z2 C E :|2 %18
[M:2/4] z C/E/"^3. In een groen groen groen groen knollenland" ||"C" G G | G c | G/A/ G/F/ | %22
 E E/E/ |"G7" G F/E/ | D F |"C" A3/2 G/ | G C/E/ | G G | G c | G/A/ G/F/ | E E/E/ |"G7" G G | %32
 F B, |"C" D2 | C3/2 C/ |"G7" D E | F D |"C" E3/2 ^D/ | E A | G E/E/ |"G7" F D/D/ | F A |"C" A2 | %43
 G C/E/ | G G | G c | G/A/ G/F/ | E E/E/ |"G7" G F | D B, |"C" D2 | C2 |: %52
[M:4/4]"C""^4. Zakdoek leggen" G G E A | G G E A | G G"F" A A |"C" G G E2 | G G"F" A A | %57
"C" G G E2 |"G7" F F F D | F F F2 | A G F E |"C" D G C2 :: %62
[M:2/4]"C""^5. Klap eens in je handjes" C/D/ E/F/ | G G |"F" A A |"C" G2 |"G7" F/F/ F/F/ | %67
"C" E/E/ E |"G7" D D |"C" C2 | C/D/ E/F/ | G G |"F" A/A/ A/A/ |"C" G2 | c G/A/ |"G7" G/F/ E/D/ | %76
 C2 ::"C""^6. Op een klein stationnetje" C/C/ C/D/ | E/E/ E |"G7" D/C/ D/E/ |"C" C C | E/E/ E/F/ | %82
 G/G/ G |"G7" F/F/ F/G/ |"C" E E | G/G/ G/G/ |"F" A/A/ A | F/F/ F/A/ |"C" G G | C/D/ E/F/ | %90
 G G/F/ |"G7" E D |1"C" C2 :|2"C" C3/2 G/ |:"C""^7. Er zaten zeven kikkertjes" C/D/ E/F/ | %95
 G/G/ G/F/ |"D7" E/E/"G7" D/D/ |"C" C3/2 G/ | C/D/ E/F/ | G G/F/ |"D7" E/E/"G7" D/D/ |"C" C2 | %102
 E/E/ E/E/ |"F" F/F/ F/F/ |"D7" D/D/ D/D/ |"G7" G3/2 G/ |"C" C/D/ E/F/ | G G/F/ | %108
"D7" E/E/"G7" D/D/ |1"C" C3/2 G/ :|2"C" C2 |:[M:4/4]"C""^8. Zagen zagen" G G E A | G G E A | %113
 G G"F" A A |"C" G/A/G/F/ E G |"F" F/F/F/D/ F2 | F/F/F/D/ F2 |"G7" A G/G/ F E | D G"C" C z :: %119
[M:2/4]"C""^9. Op 'n rode paddestoel" C/C/ C/D/ | E/E/ E |"G7" D/C/ D/E/ |"C" C C | E/E/ E/F/ | %124
 G/G/ G |"G7" F/E/ F/G/ |"C" E E | G/G/ G/G/ |"F" A/A/ A |"G7" F/F/ F/F/ |"C" G2 | C/D/ E/F/ | %132
 G G/F/ |"C" E"G7" D/G/ |"C" C2 ::[M:4/4]"C""^10. Poesie mauw" G G c2 | E E G2 | C C"G7" D D | %138
"C" G G E2 | G G c2 | E E G2 | c A G E |"G7" D D"C" C2 ::"C""^11. Slaap kindje slaap" E2"G7" D D | %144
"C" C3 E | G G"G7" F F |"C" E3 E | G G G E |"G7" F2 F F |"C" E E E/D/ C |"G7" D2 D2 | %151
"C" E2"F" F F |"C" G2"F" A2 |"G7" G F E D |1"C" C4 :|2"C" C z [EGc] z |] %156

